X: 734
T: Ey Çeşm-i Âhû Mehlika
C: Nikoğos Ağa
O: Turkey
F: http://compmusic.upf.edu/node/140
N: acemasiran--sarki--semai--ey_cesm-i--nikogos_aga
N: makam= acemasiran
N: form= sarki
N: usul= semai = 3/4
M: 3/4
L: 1/16
K: C _B   
Q: 1/4=156
%%MIDI tuningsystem comma53
f4 a4 g4  | f4 e4 d4  | c4 a4 g4  | f12  | \
w:  ARANAĞME  |   |   |   | 
f4 e4 d4  | c4 B4 A4  | G4 c2B2 A2G2  | 
w:   |   |   | 
F2GA Bcde f4  | f4 a4 g4  | f4 e4 d4  | \
w:   |  ARANAĞME  |   | 
c4 a4 g4  | f12  | f4 e4 d4  | 
w:   |   |   | 
c4 B4 A4  | G4 c2B2 A2G2  | F12  | c4 .c2.c2 .c2.c2  | \
w:   |   |   |   | 
c4 .c2.c2 .c2.c2  | c4 d4 e4  | 
w:   |   | 
f12  | f4 e4 f4  | g4 ^3/4f4 g4  | c'4 =b4 d'4  | c'12  | \
w:   |   |   |   |   | 
c4 .c2.c2 .c2.c2  | c4 .c2.c2 .c2.c2  | 
w:   |   | 
c4 d4 e4  | f12  | f4 e4 d4  | c4 B4 A4  | \
w:   |   |   |   | 
G4 c2B2 A2G2  | F12  | f8 a4  | g8 f4  | e8 d4  | 
w:   |   |  Ey   |  çeşm_  |  i   | 
e4 d4 c4  | c4 d4 e4  | f4 g4 a4  | g4 f4 e4  | f12  | \
w:  â  |  hû   |  meh  |  li  |  ka    | 
f8 a4  | g8 f4  | e8 d4  | e4 d4 c4  | 
w:  Ey   |  çeşm_  |  i   |  â  | 
c4 d4 e4  | f4 g4 a4  | g4 f4 e4  | f12  | \
w:  hû   |  meh  |  li  |  ka    | 
f4 e4 d4  | ^3/4c4 d4 e4  | {d}d12  | d12  | \
w:  Cür  |  müm  *  ne  |  *  dir   |   | 
d4 c4 B4  | 
w:  söy  | 
A4 B4 c4  | A12  | c12  | c8 B4  | A8 d4  | d4 c4 B4  | \
w:  le  *  ba  |  na    |   |  Cür  |  müm  ne  |  dir   | 
A4 G4 F4  | A4 G4 F4  | E4 F4 G4  | 
w:   |  söy  |  le  *  ba  | 
F12  | c12  | c8 _2/4B4  | c8 _3/4d4  | e2f2 e4 _3/4d4  | \
w:  na    |  SAZ  |  Ben   |  â  |  şı  | 
c8 _2/4B4  | c4 _3/4d4 e4  | f4 e4 _3/4d4  | \
w:  kım   |  ey   |  meh   | 
c8 _2/4B4  | c2_3/4d2 c2_2/4B2 A2G2  | 
w:  sa  |  na    | 
c8 _2/4B4  | c8 _3/4d4  | e2f2 e4 _3/4d4  | \
w:  Ben   |  â  |  şı  | 
c8 _2/4B4  | c4 d4 e4  | f4 g4 a4  | g4 f4 e4  | f12  | \
w:  kım   |  ey   |  meh   |  sa  |  na    | 
f4 e4 d4  | 
w:  Cür  | 
^3/4c4 d4 e4  | {d}d12  | d12  | d4 c4 B4  | \
w:  müm  *  ne  |  *  dir   |   |  söy  | 
A4 B4 c4  | A12  | c12  | c8 B4  | A8 d4  | d4 c4 B4  | \
w:  le  *  ba  |  na    |   |  Cür  |  müm  ne  |  dir   | 
A4 G4 F4  | 
w:   | 
A4 G4 F4  | E4 F4 G4  | F12  | |


